assets/headset-fill.svg

<svg xmlns="http://www.w3.org/2000/svg" fill="none" viewBox="0 0 23 23">
  <path stroke="#2A2238" d="M11.5586 1C1.80724 1-3.35527 12.8982 5.70538 21.227"/>
  <path fill="#2A2238" stroke="#2A2238" d="M8.90524 21.4192c-1.32601.7598-2.86562.1222-2.86562.1222-2.05506-1.5042-3.65076-5.2031-3.72143-6.9864-.07067-1.7832 2.34272-1.7654 3.41519-.741 1.07247 1.0245 4.49792 6.8455 3.17186 7.6052Zm5.17246 0c1.326.7598 2.8657.1222 2.8657.1222 2.055-1.5042 3.6507-5.2031 3.7214-6.9864.0707-1.7832-2.3427-1.7654-3.4152-.741-1.0725 1.0245-4.4979 6.8455-3.1719 7.6052Z"/>
  <path stroke="#2A2238" d="M11.4414 1c9.7514 0 14.9139 11.8982 5.8532 20.227"/>
</svg>

<svg width="23" height="23" viewBox="0 0 23 23" fill="none" xmlns="http://www.w3.org/2000/svg">
<path d="M11.5586 1C1.80724 1 -3.35527 12.8982 5.70538 21.227" stroke="#2A2238"/>
<path d="M8.90524 21.4192C7.57923 22.179 6.03962 21.5414 6.03962 21.5414C3.98456 20.0372 2.38886 16.3383 2.31819 14.555C2.24752 12.7718 4.66091 12.7896 5.73338 13.814C6.80585 14.8385 10.2313 20.6595 8.90524 21.4192Z" fill="#2A2238" stroke="#2A2238"/>
<path d="M14.0777 21.4192C15.4037 22.179 16.9434 21.5414 16.9434 21.5414C18.9984 20.0372 20.5941 16.3383 20.6648 14.555C20.7355 12.7718 18.3221 12.7896 17.2496 13.814C16.1771 14.8385 12.7517 20.6595 14.0777 21.4192Z" fill="#2A2238" stroke="#2A2238"/>
<path d="M11.4414 1C21.1928 1 26.3553 12.8982 17.2946 21.227" stroke="#2A2238"/>
</svg>
